X:6
T:C'est Toi Seigneur notre joie - A104
C:M. Debaisieux
M:C
L:1/8
K:F
A2|"Fa"A3A "Do"G2GG|"Fa"FF2zz2C2|"Sol"D3D D2FD|"Do"C6 A2|"Fa"A3A "Sibm"BB BB|"Fa"AA2zz2C2|
"Sib"D3D "Sol"DD FD|"Do"DC3 z2"Fa"A2|"Sib"B3B "Do"G2G2|"Fa"A6 c2|"Do"c4 B4|"Fa"A8||
